X:11849
T:no name
M:6/8
L:1/8
R:jig
Z:id:hn-jig-141
K:Edor
F|:GEE B,EE|~F3 DFA|GEE B,EE|FED E2F|
GEE B,EE|~F3 DFA|BAG BdB|1 AFD E2F:|2 AFD E2c||
|:~d3 dcB|AFD FGA|Bee ede|fed AFA|
~d3 dcB|AFD FGA|Bdd BdB|1 AFD E2c:|2 AFD E2||
